build/img/icons/viber-small.svg

<svg width="20" height="22" viewBox="0 0 20 22" fill="none" xmlns="http://www.w3.org/2000/svg">
<path d="M19.5526 5.16864L19.5467 5.14382C19.0642 3.11524 16.8889 0.938467 14.8913 0.485604L14.8688 0.480779C11.6377 -0.16026 8.36161 -0.16026 5.13123 0.480779L5.10803 0.485604C3.11108 0.938467 0.935843 3.11524 0.452678 5.14382L0.447375 5.16864C-0.149125 8.00162 -0.149125 10.8746 0.447375 13.7076L0.452678 13.7324C0.915231 15.6744 2.92849 17.7511 4.85154 18.3223V20.5867C4.85154 21.4063 5.8119 21.8088 6.35803 21.2174L8.56409 18.8326C9.04255 18.8604 9.52127 18.8759 10 18.8759C11.6265 18.8759 13.2536 18.716 14.8688 18.3955L14.8913 18.3907C16.8889 17.9378 19.0642 15.761 19.5467 13.7324L19.5526 13.7076C20.1491 10.8746 20.1491 8.00162 19.5526 5.16864ZM17.8069 13.2967C17.4848 14.6202 15.8331 16.2655 14.5208 16.5695C12.8028 16.9092 11.0712 17.0545 9.3414 17.0046C9.307 17.0037 9.27392 17.0175 9.24993 17.0432C9.00444 17.3052 7.63918 18.7628 7.63918 18.7628L5.9259 20.5915C5.80064 20.7273 5.58059 20.6349 5.58059 20.4474V16.6962C5.58059 16.6342 5.53804 16.5815 5.47952 16.5696C5.47919 16.5696 5.47886 16.5695 5.47853 16.5694C4.16622 16.2654 2.51524 14.6201 2.19247 13.2967C1.65562 10.736 1.65562 8.14009 2.19247 5.57938C2.51524 4.25595 4.16622 2.61061 5.47853 2.30664C8.47892 1.71316 11.5211 1.71316 14.5208 2.30664C15.8338 2.61061 17.4848 4.25595 17.8069 5.57938C18.3443 8.14016 18.3443 10.736 17.8069 13.2967Z" fill="white"/>
<path d="M12.8547 15.0283C12.653 14.9646 12.4607 14.9218 12.2821 14.8447C10.4319 14.0464 8.7291 13.0164 7.38028 11.4376C6.61325 10.5398 6.0129 9.52623 5.50541 8.45356C5.26476 7.94486 5.06195 7.41625 4.85523 6.89108C4.66673 6.41216 4.94437 5.91739 5.23672 5.55654C5.51105 5.2179 5.86404 4.95872 6.24633 4.76772C6.54472 4.61863 6.83906 4.70458 7.05698 4.96761C7.52808 5.53628 7.96081 6.13403 8.31122 6.7932C8.52669 7.19864 8.46757 7.69424 8.07706 7.97016C7.98215 8.03723 7.89566 8.11594 7.80724 8.1917C7.7297 8.25808 7.65673 8.32514 7.60357 8.41503C7.50641 8.57949 7.50177 8.77346 7.56434 8.95226C8.04591 10.3286 8.85762 11.3989 10.1897 11.9753C10.4028 12.0676 10.6169 12.175 10.8625 12.1452C11.2737 12.0952 11.4069 11.6261 11.695 11.381C11.9767 11.1414 12.3367 11.1383 12.6401 11.338C12.9436 11.5377 13.2378 11.7522 13.5302 11.9689C13.8173 12.1816 14.103 12.3897 14.3678 12.6322C14.6224 12.8654 14.7101 13.1713 14.5667 13.4877C14.3043 14.0673 13.9224 14.5494 13.3715 14.8572C13.2159 14.944 13.0301 14.9721 12.8547 15.0283C13.0301 14.9721 12.653 14.9645 12.8547 15.0283Z" fill="white"/>
<path d="M10.005 4.10505C12.4252 4.17557 14.4129 5.84592 14.8389 8.33426C14.9115 8.75824 14.9373 9.19174 14.9696 9.62206C14.9832 9.80307 14.8846 9.97504 14.6968 9.97739C14.5028 9.9798 14.4155 9.81099 14.4029 9.63006C14.378 9.2719 14.3607 8.91216 14.3132 8.55697C14.0627 6.68203 12.6251 5.13085 10.8307 4.79799C10.5607 4.74788 10.2843 4.73472 10.0107 4.70487C9.83783 4.68599 9.61136 4.67509 9.57305 4.45156C9.5409 4.26414 9.69301 4.11491 9.8646 4.10533C9.91126 4.10264 9.95819 4.10484 10.005 4.10505C12.4252 4.17557 9.95819 4.10484 10.005 4.10505Z" fill="white"/>
<path d="M13.6829 9.06355C13.679 9.09498 13.6768 9.16888 13.6591 9.23849C13.5949 9.49119 13.2266 9.52282 13.1417 9.26779C13.1166 9.1921 13.1128 9.10601 13.1127 9.02454C13.1118 8.49144 13.0004 7.95889 12.7419 7.49507C12.4762 7.01836 12.0703 6.61761 11.5941 6.37511C11.3062 6.2285 10.9948 6.13738 10.6793 6.08306C10.5414 6.05935 10.402 6.04494 10.2634 6.02489C10.0955 6.00062 10.0058 5.8893 10.0137 5.71719C10.0212 5.55589 10.1345 5.43988 10.3035 5.44981C10.8589 5.48262 11.3954 5.60745 11.8891 5.87938C12.8932 6.43239 13.4668 7.30531 13.6342 8.4709C13.6418 8.5237 13.654 8.57602 13.6578 8.62902C13.6673 8.75992 13.6733 8.89095 13.6829 9.06355C13.679 9.09498 13.6733 8.89095 13.6829 9.06355Z" fill="white"/>
<path d="M12.1776 9.00241C11.9751 9.0062 11.8668 8.88964 11.8459 8.69657C11.8314 8.56196 11.8199 8.42555 11.789 8.29458C11.7282 8.03665 11.5964 7.7976 11.3877 7.63955C11.2892 7.5649 11.1776 7.51051 11.0607 7.47543C10.9122 7.43083 10.7579 7.4431 10.6097 7.40533C10.4488 7.36432 10.3598 7.2288 10.3851 7.07178C10.4081 6.92889 10.5418 6.81737 10.6919 6.82867C11.6302 6.89912 12.3008 7.40361 12.3965 8.55237C12.4033 8.63344 12.4112 8.71911 12.3939 8.79666C12.3643 8.92942 12.2698 8.99593 12.1776 9.00241C12.2698 8.99593 11.9751 9.0062 12.1776 9.00241Z" fill="white"/>
</svg>

<svg width="20" height="22" fill="none" xmlns="http://www.w3.org/2000/svg"><path d="M19.553 5.169l-.006-.025C19.064 3.115 16.889.938 14.89.486L14.87.48a24.893 24.893 0 00-9.738 0l-.023.005C3.111.938.936 3.116.453 5.144l-.006.025a20.596 20.596 0 000 8.539l.006.024c.462 1.942 2.475 4.02 4.399 4.59v2.265c0 .82.96 1.222 1.506.63l2.206-2.384a24.988 24.988 0 006.305-.437l.022-.005c1.998-.453 4.173-2.63 4.656-4.659l.006-.024a20.596 20.596 0 000-8.54zm-1.746 8.128c-.322 1.323-1.974 2.968-3.286 3.273a23.21 23.21 0 01-5.18.435.12.12 0 00-.091.038l-1.61 1.72-1.714 1.828c-.125.136-.345.044-.345-.144v-3.75a.128.128 0 00-.101-.127h-.001c-1.313-.305-2.964-1.95-3.287-3.273a18.691 18.691 0 010-7.718c.323-1.323 1.974-2.968 3.287-3.272 3-.594 6.042-.594 9.042 0 1.313.304 2.964 1.949 3.286 3.272a18.69 18.69 0 010 7.718z" fill="#fff"/><path d="M12.855 15.028c-.202-.063-.394-.106-.573-.183-1.85-.799-3.553-1.829-4.902-3.407-.767-.898-1.367-1.912-1.875-2.984-.24-.51-.443-1.038-.65-1.563-.188-.479.09-.974.382-1.334a3.027 3.027 0 011.01-.79c.298-.148.592-.062.81.2.471.57.904 1.167 1.254 1.826.216.406.157.901-.234 1.177-.095.067-.181.146-.27.222a.906.906 0 00-.203.223.633.633 0 00-.04.537c.482 1.377 1.294 2.447 2.626 3.023.213.093.427.2.673.17.41-.05.544-.519.832-.764.282-.24.642-.243.945-.043.304.2.598.414.89.63.287.214.573.422.838.664.254.233.342.54.199.856-.263.58-.645 1.061-1.196 1.37-.155.086-.34.114-.516.17.175-.056-.202-.064 0 0zm-2.85-10.923c2.42.07 4.408 1.74 4.834 4.23.072.423.098.857.13 1.287.014.181-.084.353-.272.355-.194.003-.281-.166-.294-.347-.025-.358-.042-.718-.09-1.073-.25-1.875-1.688-3.426-3.482-3.759-.27-.05-.547-.063-.82-.093-.173-.019-.4-.03-.438-.253-.032-.188.12-.337.292-.347.046-.002.093 0 .14 0 2.42.07-.047 0 0 0z" fill="#fff"/><path d="M13.683 9.064c-.004.031-.006.105-.024.174-.064.253-.432.285-.517.03a.789.789 0 01-.03-.243c0-.534-.112-1.066-.37-1.53a2.783 2.783 0 00-1.148-1.12 3.21 3.21 0 00-.915-.292c-.138-.024-.277-.038-.416-.058-.168-.024-.257-.136-.25-.308.008-.161.121-.277.29-.267.556.033 1.092.157 1.586.43 1.004.552 1.578 1.425 1.745 2.59.008.054.02.106.024.159.01.13.015.262.025.435-.004.031-.01-.173 0 0z" fill="#fff"/><path d="M12.178 9.002c-.203.004-.311-.112-.332-.305-.015-.135-.026-.271-.057-.402a1.137 1.137 0 00-.401-.655 1.031 1.031 0 00-.327-.165c-.149-.044-.303-.032-.451-.07a.287.287 0 01-.225-.333.293.293 0 01.307-.243c.938.07 1.609.575 1.704 1.723.007.081.015.167-.002.245-.03.132-.124.199-.216.205.092-.006-.203.004 0 0z" fill="#fff"/></svg>
